material/.icons/material/download-lock-outline.svg

<svg xmlns="http://www.w3.org/2000/svg" viewBox="0 0 24 24"><path d="M22 16a1.08 1.08 0 011 1v4a1.08 1.08 0 01-1 1h-5a1.08 1.08 0 01-1-1v-4a1.08 1.08 0 011-1v-1.5a2.5 2.5 0 015 0V16m-1 0v-1.5a1.5 1.5 0 00-3 0V16h3M13 5v6h1.17L12 13.17 9.83 11H11V5h2m2-2H9v6H5l7 7 7-7h-4V3m-1 15H5v2h9z"/></svg>

<?xml version="1.0" encoding="UTF-8"?><!DOCTYPE svg PUBLIC "-//W3C//DTD SVG 1.1//EN" "http://www.w3.org/Graphics/SVG/1.1/DTD/svg11.dtd"><svg xmlns="http://www.w3.org/2000/svg" xmlns:xlink="http://www.w3.org/1999/xlink" version="1.1" id="mdi-download-lock-outline" width="24" height="24" viewBox="0 0 24 24"><path d="M22 16A1.08 1.08 0 0 1 23 17V21A1.08 1.08 0 0 1 22 22H17A1.08 1.08 0 0 1 16 21V17A1.08 1.08 0 0 1 17 16V14.5A2.5 2.5 0 0 1 22 14.5V16M21 16V14.5A1.5 1.5 0 0 0 18 14.5V16H21M13 5V11H14.17L12 13.17L9.83 11H11V5H13M15 3H9V9H5L12 16L19 9H15V3M14 18H5V20H14Z" /></svg>
